X:27
T:Down the Burn, Davie Lad
R:Slow Air
S:MacDonald - Skye Collection
N:182
M:C
L:1/8
Q:1/4=80
K:D
d>e|{d}f>edB AFE>D|{D}FA Ad d3e|~f>efa Adgf|f2e2 z2 d>e|f>edB AFE>D|
FA Ad d3e|f>dfa Adf>e|e2d2 z2 f2|edef B3f|edef B3c|dedB Adg>f|f2e2 z2 de|
f>gf>d B>cd2|g>ag>e c>de2|a>ba>f d>efd|Adf>e e2d z|(FED2) def2|(GFE2) efg2|
(AGF2) fg a>g|f>e f<a d>BAF|Adf>e e2d2||
